dist/svgs/devui-icons/op/add-child-node.svg

<?xml version="1.0" encoding="UTF-8"?>
<svg width="16px" height="16px" viewBox="0 0 16 16" version="1.1" xmlns="http://www.w3.org/2000/svg" xmlns:xlink="http://www.w3.org/1999/xlink">
    <title>添加子级别 的树节点</title>
    <desc>Created with Sketch.</desc>
    <g id="添加子级别-的树节点" stroke="none" stroke-width="1" fill="none" fill-rule="evenodd">
        <g id="操作/添加子级别的树节点" fill="#293040">
            <path d="M6,12.5 L6,10.5 L9.34110244,10.5 C8.53275467,11.0374608 8,11.9565146 8,13 C8,14.0434854 8.53275467,14.9625392 9.34110244,15.5 L6,15.5 L6,13.5 L2,13.5 L2,9.5 L0,9.5 L0,5.5 L10,5.5 L10,9.5 L3,9.5 L3,12.5 L6,12.5 Z M0,0.5 L10,0.5 L10,4.5 L0,4.5 L0,0.5 Z M12.6588976,10.5 L16,10.5 L16,15.5 L12.6588976,15.5 C13.4672453,14.9625392 14,14.0434854 14,13 C14,11.9565146 13.4672453,11.0374608 12.6588976,10.5 L12.6588976,10.5 Z M10.5,12.5 L10.5,11.5 L11.5,11.5 L11.5,12.5 L12.5,12.5 L12.5,13.5 L11.5,13.5 L11.5,14.5 L10.5,14.5 L10.5,13.5 L9.5,13.5 L9.5,12.5 L10.5,12.5 Z" id="形状"></path>
        </g>
    </g>
</svg>

<svg xmlns="http://www.w3.org/2000/svg" viewBox="0 0 16 16"><path fill-rule="evenodd" d="M6 12.5v-2h3.341A2.997 2.997 0 008 13c0 1.043.533 1.963 1.341 2.5H6v-2H2v-4H0v-4h10v4H3v3h3zM0 .5h10v4H0v-4zm12.659 10H16v5h-3.341A2.997 2.997 0 0014 13a2.997 2.997 0 00-1.341-2.5zm-2.159 2v-1h1v1h1v1h-1v1h-1v-1h-1v-1h1z"/></svg>
